X:1
T:Title
%%score { ( 1 4 ) | ( 2 3 ) }
L:1/8
M:6/8
K:Eb
V:1 treble nm="Grand Piano"
V:4 treble 
V:2 bass 
V:3 bass 
V:1
 z3 z2[Q:1/4=90] E | G2 G G2 [DF] | [DF]2 E E2 E | [DF][EG][FA] [GB]2 [FA] | [EG]3- [EG]2 [GB] | %5
 [Ge]2 [Ge] [Ad]2 [DAc] | [EGB]2 [B,FA] [B,EG]2 [B,E] | [CF]G[CFA] [B,EG]2 [A,DF] | [G,E]6 | %9
 [EB]3 A-[Ac]d | [Ge]3 .[GB]3 | A2 G c2 B | A2 G c2 B | B3 A-[Ac][Ad] | %14
[M:15/16] [Ge]3 [EAc]3/2- [EAc]3 |[M:3/4] z2 z .A3 | [DF]3 E3 |] %17
V:2
 z3 z2 [E,G,] | [E,B,E]2 [E,B,E] [E,B,E]2 [B,,A,] | [B,,A,]2 [E,G,] [E,G,]2 [E,G,] | %3
 [B,,B,]2 [B,,B,] [B,,B,]2 [B,,B,] | [E,B,]3- [E,B,]2 [E,B,] | [E,B,]2 [E,B,] [E,C]2 E, | %6
 E,2 E, E,2 G,, | z =EA,, B,,2 B,, | E,6 | G,3 z C[F,B,] | [E,B,]3 .[E,E]3 | %11
 [E,CE]2 [E,B,E] [E,A,E]2 [E,G,E] | [E,CE]2 [E,B,E] [E,A,E]2 [E,G,E] | [G,E]3 z C[F,B,] | %14
[M:15/16] [E,B,]3 A,,3/2- A,,3 |[M:3/4] B,,2 B,, [B,,F,]2 [B,,E,] | [B,,A,]3 [E,G,]3 |] %17
V:3
 x6 | x6 | x6 | x6 | x6 | x6 | x6 | .A,,3 z3 | x6 | z3 .F,3 | x6 | x6 | x6 | z3 .F,3 | %14
[M:15/16] x15/2 |[M:3/4] x6 | x6 |] %17
V:4
 x6 | x6 | x6 | x6 | x6 | x6 | x6 | x6 | x6 | z3 .[DB]3 | x6 | x6 | x6 | z3 .[DB]3 | %14
[M:15/16] x15/2 |[M:3/4] [EGB]2 [G,E]C D[EG] | x6 |] %17

